dist/svg/u1F3E2.svg

<?xml version="1.0" encoding="UTF-8"?><svg id="Layer_1" xmlns="http://www.w3.org/2000/svg" viewBox="0 0 40 40"><rect y="0" width="40" height="40" style="fill:none;"/><g><path d="M32.56667,3.84904H7.43333c-1.06773,0-1.93333,.86566-1.93333,1.93333v28.28314c0,1.15181,.93369,2.08544,2.08538,2.08544h24.82924c1.15169,0,2.08538-.93363,2.08538-2.08544V5.78238c0-1.06768-.8656-1.93333-1.93333-1.93333Z" style="fill:#d0d5da;"/><path d="M18.55903,30.93747h2.88194c.64341,0,1.16577,.52236,1.16577,1.16577v4.04771h-5.21348v-4.04771c0-.64341,.52236-1.16577,1.16577-1.16577Z" style="fill:#6b7683;"/><path d="M14.68333,24.38764c0,.26692-.21641,.48333-.48333,.48333h-1.93333c-.26692,0-.48333-.21641-.48333-.48333v-1.93333c0-.26704,.21641-.48333,.48333-.48333h1.93333c.26692,0,.48333,.2163,.48333,.48333v1.93333Zm0-6.76667c0,.26692-.21641,.48333-.48333,.48333h-1.93333c-.26692,0-.48333-.21641-.48333-.48333v-1.93333c0-.26704,.21641-.48333,.48333-.48333h1.93333c.26692,0,.48333,.2163,.48333,.48333v1.93333Zm0-6.76667c0,.26692-.21641,.48333-.48333,.48333h-1.93333c-.26692,0-.48333-.21641-.48333-.48333v-1.93333c0-.26704,.21641-.48333,.48333-.48333h1.93333c.26692,0,.48333,.2163,.48333,.48333v1.93333Zm6.76667,13.53333c0,.26692-.21641,.48333-.48333,.48333h-1.93333c-.26692,0-.48333-.21641-.48333-.48333v-1.93333c0-.26704,.21641-.48333,.48333-.48333h1.93333c.26692,0,.48333,.2163,.48333,.48333v1.93333Zm0-6.76667c0,.26692-.21641,.48333-.48333,.48333h-1.93333c-.26692,0-.48333-.21641-.48333-.48333v-1.93333c0-.26704,.21641-.48333,.48333-.48333h1.93333c.26692,0,.48333,.2163,.48333,.48333v1.93333Zm0-6.76667c0,.26692-.21641,.48333-.48333,.48333h-1.93333c-.26692,0-.48333-.21641-.48333-.48333v-1.93333c0-.26704,.21641-.48333,.48333-.48333h1.93333c.26692,0,.48333,.2163,.48333,.48333v1.93333Zm6.76667,13.53333c0,.26692-.21641,.48333-.48333,.48333h-1.93333c-.26692,0-.48333-.21641-.48333-.48333v-1.93333c0-.26704,.21641-.48333,.48333-.48333h1.93333c.26692,0,.48333,.2163,.48333,.48333v1.93333Zm0-6.76667c0,.26692-.21641,.48333-.48333,.48333h-1.93333c-.26692,0-.48333-.21641-.48333-.48333v-1.93333c0-.26704,.21641-.48333,.48333-.48333h1.93333c.26692,0,.48333,.2163,.48333,.48333v1.93333Zm0-6.76667c0,.26692-.21641,.48333-.48333,.48333h-1.93333c-.26692,0-.48333-.21641-.48333-.48333v-1.93333c0-.26704,.21641-.48333,.48333-.48333h1.93333c.26692,0,.48333,.2163,.48333,.48333v1.93333Z" style="fill:#8a94a0;"/></g></svg>

<svg id="Layer_1" data-name="Layer 1" xmlns="http://www.w3.org/2000/svg" viewBox="0 0 40 40"><defs><style>.cls-1{fill:none;}.cls-2{fill:#d0d5da;}.cls-3{fill:#6b7683;}.cls-4{fill:#8a94a0;}</style></defs><rect class="cls-1" width="40" height="40"/><path class="cls-2" d="M32.567,3.849H7.433A1.934,1.934,0,0,0,5.5,5.782V34.066a2.086,2.086,0,0,0,2.085,2.085h24.83A2.086,2.086,0,0,0,34.5,34.066V5.782A1.934,1.934,0,0,0,32.567,3.849Z"/><path class="cls-3" d="M18.559,30.937h2.882A1.166,1.166,0,0,1,22.607,32.1v4.048a0,0,0,0,1,0,0H17.393a0,0,0,0,1,0,0V32.1A1.166,1.166,0,0,1,18.559,30.937Z"/><path class="cls-4" d="M14.683,24.388a.483.483,0,0,1-.483.483H12.267a.484.484,0,0,1-.484-.483V22.454a.484.484,0,0,1,.484-.483H14.2a.483.483,0,0,1,.483.483Zm0-6.767a.483.483,0,0,1-.483.483H12.267a.484.484,0,0,1-.484-.483V15.688a.484.484,0,0,1,.484-.484H14.2a.484.484,0,0,1,.483.484Zm0-6.767a.484.484,0,0,1-.483.484H12.267a.484.484,0,0,1-.484-.484V8.921a.484.484,0,0,1,.484-.483H14.2a.483.483,0,0,1,.483.483ZM21.45,24.388a.483.483,0,0,1-.483.483H19.033a.483.483,0,0,1-.483-.483V22.454a.483.483,0,0,1,.483-.483h1.934a.483.483,0,0,1,.483.483Zm0-6.767a.483.483,0,0,1-.483.483H19.033a.483.483,0,0,1-.483-.483V15.688a.484.484,0,0,1,.483-.484h1.934a.484.484,0,0,1,.483.484Zm0-6.767a.484.484,0,0,1-.483.484H19.033a.484.484,0,0,1-.483-.484V8.921a.483.483,0,0,1,.483-.483h1.934a.483.483,0,0,1,.483.483Zm6.767,13.534a.484.484,0,0,1-.484.483H25.8a.483.483,0,0,1-.483-.483V22.454a.483.483,0,0,1,.483-.483h1.933a.484.484,0,0,1,.484.483Zm0-6.767a.484.484,0,0,1-.484.483H25.8a.483.483,0,0,1-.483-.483V15.688A.484.484,0,0,1,25.8,15.2h1.933a.484.484,0,0,1,.484.484Zm0-6.767a.484.484,0,0,1-.484.484H25.8a.484.484,0,0,1-.483-.484V8.921a.483.483,0,0,1,.483-.483h1.933a.484.484,0,0,1,.484.483Z"/></svg>
